src/images/icon-light.svg

<?xml version="1.0" standalone="no"?><!-- Generator: Gravit.io --><svg xmlns="http://www.w3.org/2000/svg" xmlns:xlink="http://www.w3.org/1999/xlink" style="isolation:isolate" viewBox="0.038 0 64 63.135" width="64" height="63.135"><defs><clipPath id="_clipPath_FXz7iHniVmWbCzbXuuYwQVmUKJ6mqb6b"><rect x="0.038" y="0" width="64" height="63.135"/></clipPath></defs><g clip-path="url(#_clipPath_FXz7iHniVmWbCzbXuuYwQVmUKJ6mqb6b)"><g><path d=" M 23.041 54.872 C 23.041 54.872 32.746 55.96 45.946 46.602 C 40.563 46.371 35.678 45.66 35.309 44.77 C 37.599 45.878 43.41 45.069 48.25 44.812 C 51.065 42.689 52.735 41.199 55.205 38.691 C 69.382 24.342 62.239 0 62.239 0 C 59.379 5.21 55.476 9.788 50.767 13.452 C 48.781 14.962 47.266 15.954 45.094 17.188 C 43.64 19.467 41.978 22.337 41.287 24.944 C 41.741 22.67 41.917 20.716 42.781 18.563 C 24.949 28.344 4.354 30.658 13.141 50.9 C 10.676 45.622 10.003 45.596 8.088 42.573 C 8.088 42.573 8.735 45.699 9.123 47.595 C 9.77 50.503 12.585 52.412 12.585 52.412 L 0.038 61.63 L 1.145 63.135 L 13.562 53.847 C 13.562 53.847 17.082 57.741 26.405 57.927 C 24.199 56.4 21.848 55.089 19.385 54.013 L 23.041 54.872 Z  M 29 37.063 C 32.445 34.375 44.484 27.551 47.255 25.745 Q 51.006 23.301 54.248 20.428 Q 51.596 23.004 48.561 25.198 C 44.465 28.087 32.407 36.04 28.88 38.999 C 18.935 47.397 15.664 50.791 15.664 50.791 C 15.664 50.791 20.951 43.342 29 37.063 Z " fill="rgb(102,102,102)"/></g></g></svg>

<svg xmlns="http://www.w3.org/2000/svg" style="isolation:isolate" viewBox="0.04 0 64 63.13" width="64" height="63.13"><defs><clipPath id="a"><path d="M.04 0h64v63.13h-64z"/></clipPath></defs><g clip-path="url(#a)"><path d="M23.04 54.87s9.7 1.09 22.9-8.27c-5.38-.23-10.26-.94-10.63-1.83 2.29 1.1 8.1.3 12.94.04a55.45 55.45 0 0 0 6.95-6.12C69.38 24.34 62.24 0 62.24 0a43.68 43.68 0 0 1-17.15 17.19c-1.45 2.28-3.11 5.15-3.8 7.75.45-2.27.63-4.22 1.5-6.38-17.84 9.78-38.44 12.1-29.65 32.34-2.46-5.28-3.14-5.3-5.05-8.33l1.03 5.02c.65 2.91 3.47 4.82 3.47 4.82L.04 61.63l1.1 1.5 12.42-9.28s3.52 3.9 12.85 4.08A41.58 41.58 0 0 0 19.39 54l3.65.86zM29 37.07c3.45-2.7 15.48-9.52 18.26-11.32q3.75-2.45 6.99-5.32Q51.6 23 48.56 25.2c-4.1 2.89-16.15 10.84-19.68 13.8-9.95 8.4-13.22 11.8-13.22 11.8s5.3-7.46 13.34-13.74z" fill="#666"/></g></svg>
